X: 0912
M: 4/4
L: 1/8
K: D
d2A>A A2A2 | A>BA>G F2A>A | G2G>G F>AG>F | E2E>E E2A2 |\
d2A>A A2A2 | A>BA>G F2A>A | B2B>B c2c>c | d2d>d d2 ||
e>f |\
g2e>e e2e2 | f2d>d d2d2 | g>fe>d c>BA>G | F2E>E E2e>f |\
g2e>e e2e2 | f2d>d d2d2 | e>gc>e d2c2 | d2d>d d2 ||
fg |\
a2f2 Adfa | g2e2 Aceg | f2d2 f2d2 | e2a2 a2fg |\
a2f2 Adfa | g2e2 Aceg | f2d2 e2c2 | d2d>d d2 |]

